src/assets/telegram.svg

<svg fill="none" height="24" viewBox="0 0 24 24" width="24" xmlns="http://www.w3.org/2000/svg" xmlns:xlink="http://www.w3.org/1999/xlink"><clipPath id="a"><path d="m0 0h24v24h-24z"/></clipPath><g clip-path="url(#a)"><path d="m9.41706 15.1809-.397 5.584c.568 0 .814-.244 1.10904-.537l2.663-2.545 5.518 4.041c1.012.564 1.725.267 1.998-.931l3.622-16.97198.001-.001c.321-1.496-.541-2.081-1.527-1.714l-21.29004 8.15098c-1.453004.564-1.431004 1.374-.247004 1.741l5.443004 1.693 12.64304-7.91098c.595-.394 1.136-.176.691.218z" fill="#737373"/></g></svg>

<svg width="24" height="24" viewBox="0 0 24 24" fill="none" xmlns="http://www.w3.org/2000/svg">
<g clip-path="url(#clip0_254_7323)">
<path d="M9.41706 15.1809L9.02006 20.7649C9.58806 20.7649 9.83406 20.5209 10.1291 20.2279L12.7921 17.6829L18.3101 21.7239C19.3221 22.2879 20.0351 21.9909 20.3081 20.7929L23.9301 3.82092L23.9311 3.81992C24.2521 2.32392 23.3901 1.73892 22.4041 2.10592L1.11406 10.2569C-0.338944 10.8209 -0.316944 11.6309 0.867056 11.9979L6.31006 13.6909L18.9531 5.77992C19.5481 5.38592 20.0891 5.60392 19.6441 5.99792L9.41706 15.1809Z" fill="#737373"/>
</g>
<defs>
<clipPath id="clip0_254_7323">
<rect width="24" height="24" fill="white"/>
</clipPath>
</defs>
</svg>
